X:38
T:Lou Merl
M:2/4
L:1/8
N:Anim
N:La Bourre 4th edition 1929, page 49
Z:Steve Mansfield www.lesession.co.uk May 2012
K:C
|: c (d/e/) d d | c B c2 | d d g g | (fe) (d2 :|
d2) c e | d2 c e | d d (3 c d e | d2 (3 d e f |
g f e d | c2 (3 d e f | g f d2 | !fermata! c4 |]

